X:1
T:Preludio
T:Preludio
T:En do mayor
T:Francisco Tárrega (1852 - 1909)
C:Francisco Tárrega
%%score ( 1 2 )
L:1/8
Q:1/4=130
M:4/4
K:C
V:1 treble-8 nm="Classical Guitar" snm="Guit."
V:2 treble-8 
V:1
"^Allegretto" [EG]2 [Gc]2 [GB]2 [Gc]2 | [^A^c]2 [Bd]2 [B^d]2 [=ce]2 | %2
 [eg]2"^V" [fa]2"^VII" [gb]2"^VIII" [gc']2 |"^VII" [gb]2 [dg]2"^V" [ea]2"^II" [d^f]2 | %4
"^III" [Bdg]8 | [_EG]2 [Gc]2 [GB]2 [Gc]2 | [G_B]2"^III" [B_e]2 [Bd]2 [Be]2 | %7
 [_eg]2 [g_b]2 [_ac']2 [gb]2 |"^VI" [f_b]2 [df]2"^III" [f_a]2 [_eg]2 | %9
 [_d=e]2 [=df]2 [_df]2"^VI" [f_b]2 | [f_b]2 [f_a]2 [_eg]2"^VIII" [gc']2 | %11
 [fc']2 [f=b]2 [Bd]2 [Bf]2 | [cf]2 [c_e]2 [ce]2 [cd]2 | [Bd]2 [DG]2 [EG]2 !fermata![FG]2 | %14
 [EG]2 [Gc]2 [GB]2 [Gc]2 | [^A^c]2 [Bd]2 [B^d]2 [=ce]2 | [ce]2"^I" [cf]2"^V" [fa]2"^VI" [f_b]2 | %17
"^VII" [g=b]2"^VIII" [gc']2"^IX" [a^c']2"^X" [ad']2 |"^VIII" [gc']2 [eg]2 [ce]2 [Gc]2 | %19
 [ce]4 [GBf]4 | [Gce]8 |] %21
V:2
 C2 E2 F2 E2 | G2 G2 G2 G2 | c2 c2 d2 e2 | d2 B2 c2 c2 | z2 G2 G2 G2 | C2 _E2 F2 E2 | %6
 _E2 G2 _A2 G2 | _B2 _e2 e2 e2 | d2 _B2 B2 B2 | _B2 B2 B2 _d2 | c2 c2 c2 _e2 | d2 d2 G2 G2 | %12
 G2 G2 ^F2 F2 | G2 B,2 C2 D2 | C2 E2 F2 E2 | G2 G2 G2 G2 | _B2 A2 _e2 d2 | f2 =e2 g2 f2 | %18
 e2 c2 G2 E2 | G4 G,4 | C8 |] %21

